!!!!SEGMENT: pl-wtm--r-1226--023_lodwigowski-edward-stefan--gdy-w-czystem-polu.krn
!!!cenid: 18xx:1939
!!!COM: Łodwigowski, Edward Stefan
!!!COM-rismid: pe30111147
!!!CDT: 1815/08/14-1895/11/12
!!!CNT: Polish
!!!OTL: Gdy w czystem polu
!!!PDT:
!!!AGN:
!!!SMS-siglum: PL-Wtm
!!!SMS-shelfmark: R 1226
!!!SMS-shelfwork: 023 W
!!!SMS-variant:
!!!SMS-altvar:
!!!NIFC-rismid: 1001084015
!!!URL-scan: http://repozytorium.nifc.pl/skany/pl-wtm-nut--r1226-1227
!!!ONB-nifc: UWAGA: No. 71
!!!OMD: Andante
!!!key:
**kern	**fing	**kern	**fing	**dynam
*part1	*part1	*part1	*part1	*part1
*staff2	*staff2	*staff1	*staff1	*
*Iforte	*	*Iforte	*	*
*I"Fortepian	*	*I"Fortepian	*	*
*>[A,A,B,B]	*>[A,A,B,B]	*>[A,A,B,B]	*>[A,A,B,B]	*>[A,A,B,B]
*>A	*>A	*>A	*>A	*>A
*clefF4	*	*clefG2	*	*
*k[b-]	*	*k[b-]	*	*
*F:	*	*F:	*	*
*M3/4	*	*M3/4	*	*
*all\right	*	*all\right	*	*
=1	=1	=1	=1	=1
*2\right	*	*	*	*
!	!	!LO:TX:a:i:t=Gdy w czystem polu... P. L&colon; P..	!	!
!	!	!LO:TX:a:Bi:t=No 71.	!	!
2c 2A 2F\	.	(8ff\L	1	p
.	.	8aa\J	.	.
.	.	4.ccc\	.	.
4d 4Bn 4G#X 4F\	.	.	.	.
.	.	8bbn\	.	.
=2	=2	=2	=2	=2
*	*	*Xtuplet	*	*
!	!	!LO:TUP:a:problem:klamra łukowa, kropka zamiast numeru	!	!
2c 2A 2F\	.	12ddd\L	.	.
.	.	12ccc\	.	.
.	.	12bbn\J	.	.
*	*	*2\right	*	*
.	.	2ccc\)	.	.
4c 4A 4F\	.	.	.	.
=3	=3	=3	=3	=3
2c 2A 2F\	.	(4aa\	.	.
.	.	8ccc\L	.	.
.	.	8bb-\J	.	.
4B- 4E 4C\	.	8gg\L	.	.
.	.	16bb-\L	4	.
.	.	16aa\JJ	.	.
=4	=4	=4	=4	=4
!	!	!LO:N:vis=2.	!	!
4A 4F'\	.	[2ff\	.	.
(4C/	1	.	.	.
8FF|/)	5	8ff\])	.	.
8r	.	8r	.	.
!!LO:LB:g=original
=5:|!|:	=5:|!|:	=5:|!|:	=5:|!|:	=5:|!|:
*>B	*>B	*>B	*>B	*>B
*^	*	*	*	*
!LO:N:vis=2	!	!	!LO:TX:a:i:t=trochę prędzéj	!	!
4C	2.C\	.	8.cc\L	1	.
.	.	.	16cc\Jk	.	.
4B- 4G\	.	.	4.ee\	2	.
4B- 4G\	.	.	.	.	.
.	.	.	8gg\	.	.
=6	=6	=6	=6	=6	=6
!LO:N:vis=2	!	!	!	!	!
4C	2.C\	.	8.ff\L	3	.
.	.	.	16ff\Jk	1	.
4A 4F\	.	.	4aa\	2.	.
4A 4F\	.	.	4ddd\	.	.
=7	=7	=7	=7	=7	=7
!LO:N:vis=2	!	!	!	!	!
4C	2.C\	.	8.ccc\L	.	.
.	.	.	16ccc\Jk	.	.
4B- 4G\	.	.	4bb-\	.	.
4B- 4G\	.	.	8gg\L	2	.
.	.	.	8ee\J	1	.
=8	=8	=8	=8	=8	=8
!LO:N:vis=2	!	!	!	!	!
4C	2.C\	.	8.ff\L	2	.
.	.	.	16ff\Jk	3	.
4A 4F\	.	.	4aa\	.	.
4A 4F\	.	.	4ff\	.	.
=9	=9	=9	=9	=9	=9
!LO:N:vis=2	!	!	!	!	!
4C	2.C\	.	8.cc\L	1	.
.	.	.	16cc\Jk	.	.
4B- 4G\	.	.	4.ee\	2	.
4B- 4G\	.	.	.	.	.
.	.	.	8gg\	4	.
=10	=10	=10	=10	=10	=10
!LO:N:vis=2	!	!	!	!	!
4C	2.C\	.	8.ff\L	3	.
.	.	.	16ff\Jk	1	.
4A 4F\	.	.	4aa\	.	.
4A 4F\	.	.	4ddd\	.	.
=11	=11	=11	=11	=11	=11
!LO:N:vis=2	!	!	!	!	!
4C	2.C\	.	8.ccc\L	.	.
.	.	.	(16ccc\Jk	.	.
4B- 4G\	.	.	4.bb-\	.	.
4B- 4G\	.	.	.	.	.
.	.	.	8ee\	.	.
*v	*v	*	*	*	*
=12	=12	=12	=12	=12
4A 4F'\	.	2ff\)	.	.
4FF'/	.	.	.	.
4r	.	4r	.	.
=:|!	=:|!	=:|!	=:|!	=:|!
*-	*-	*-	*-	*-
!!!system-decoration: {p1}
!!!RDF**kern: > = above
!!!RDF**kern: < = below
!!!RDF**kern: | = vertical stroke
!!!AIN: 1 forte
!!!ENC: Andrzej Kubiczek
!!!END: 2021-05-02
!!!ENC: Marcin Jachim
!!!END: 2021-04-17
